X:1
T:Title
%%score 1 2
L:1/8
Q:1/4=90
M:4/4
K:E
V:1 treble nm="Strings 1, Soprano"
V:2 bass nm="Strings 1, Bass"
V:1
 z4 z2 [B,E][B,F] | [EG] [EG]2 [EG] [EG][EF]E[EG] | [GB]3 [Ac] [GB]2 E[EF] | %3
w: 1.~I'm~ a|bid ing~ in~ Je sus,~ what~ a~|bless ed~ place!~ I~ am~|
 [EG]3 [EG] [EA][EG][B,F][CE] | [DF]6 E[EF] | [EG] [EG]2 [EG] [EG][EF]E[EG] | %6
w: sure~ He~ kind ly~ cares~ for~|me;~ He~ will~|ne ver~ for sake~ me~ if~ I~|
 [GB]3 [Ac] [GB]2 E[EF] | [EG]3 [EB] [EA][EF][EG][B,F] | [B,E]6 [B,E][B,F] | [EG]4- [EG][EF]E[EG] | %10
w: trust~ His~ grace,~ In~ His~|cleans ing~ blood,~ I~ now~ am~|free.~ * *||
 [GB]3 [Ac] [GB]2 [EG]2 | [DF]4- [DF][DB][FA][DF] | [EG]6 E[EF] | [EG]4- [EG][EF]E[EG] | %14
w: ||||
 [GB]3 [Ac] [GB]2 [EG]2 | [GB]3 [EA] [EG]2 [DF]2 | [B,E]6 z2 |] %17
w: |||
V:2
 z4 z2 [E,G,][E,A,] | [E,B,] [E,B,]2 [E,B,] [E,B,][E,A,][E,G,][E,B,] | %2
 [E,E]3 [E,E] [E,E]2 [E,G,][E,A,] | [E,B,]3 [E,B,] [E,C][E,B,][D,B,][C,^A,] | %4
 [B,,B,]6 [E,G,][E,A,] | [E,B,] [E,B,]2 [E,B,] [E,B,][E,A,][E,G,][E,B,] | %6
 [E,E]3 [E,E] [E,E]2 [E,G,][E,A,] | [E,B,]3 [G,,B,] [A,,C][A,,C][B,,B,][B,,A,] | %8
 [E,G,]6 [E,G,][E,A,] | [E,B,][E,B,][E,B,][E,B,] [E,B,][E,A,][E,G,][E,B,] | %10
 [E,E]3 [E,E] [E,E]2 [E,B,]2 | [B,,B,][B,,B,][B,,B,][B,,B,] [B,,B,]2 [B,,B,]2 | %12
 [E,B,][E,B,][E,B,][E,B,] [E,B,]2 [E,G,][E,A,] | %13
 [E,B,][E,B,][E,B,][E,B,] [E,B,][E,A,][E,G,][E,B,] | [E,E]3 [E,E] [E,E]2 [E,B,]2 | %15
 [E,B,]3 [A,,C] [B,,B,]2 [B,,A,]2 | [E,G,]6 z2 |] %17

